COLOR/mimes 16/16/application-pdf.svg

<svg height="16" viewBox="0 0 4.233125 4.233125" width="16" xmlns="http://www.w3.org/2000/svg" xmlns:xlink="http://www.w3.org/1999/xlink"><linearGradient id="a" gradientUnits="userSpaceOnUse" x1="328" x2="328" y1="237" y2="251"><stop offset="0" stop-color="#fff"/><stop offset=".125" stop-color="#fff" stop-opacity=".098039"/><stop offset=".92500001" stop-color="#fff" stop-opacity=".098039"/><stop offset="1" stop-color="#fff" stop-opacity=".498039"/></linearGradient><clipPath id="b"><path d="m325.09646 237c-2.80769 0-3.10979.28839-3.09603 3.10176v3.89824 3.89824c-.0138 2.81337.28834 3.10176 3.09603 3.10176h5.8075c2.8077 0 3.09604-.28835 3.09604-3.10176v-3.89824-3.89824c0-2.8134-.28835-3.10176-3.09604-3.10176z"/></clipPath><linearGradient id="c" gradientTransform="matrix(0 -.00953618 -.00953591 0 5.440709 4.473642)" gradientUnits="userSpaceOnUse" x1="459.03448" x2="35.310345" y1="419.23337" y2="207.36522"><stop offset="0" stop-color="#da1636"/><stop offset="1" stop-color="#f22c42"/></linearGradient><path d="m3.149406.132284c.187972 0 .336914.0041.463514.02532.126599.02124.237243.06278.319344.144688.0821.08191.123623.192105.144688.318829.02106.126721.02468.276084.02376.464548v1.030893 1.031412c.000794.188165-.0027.337448-.02376.464029-.02106.126724-.06258.23692-.144688.318829-.0821.08191-.192742.123435-.319344.144688-.126602.02125-.275542.02532-.463514.02532h-1.536783c-.187972 0-.336629-.004-.462998-.02532-.126367-.02127-.23701305-.06274-.31882905-.144688-.08181-.08195-.122943-.192293-.144169-.318829-.02122-.126533-.02532-.275685-.02532-.464029v-1.031412-1.031411c0-.188345.0041-.337497.02532-.46403.02122-.126536.06236-.236878.144169-.318829.08182-.08195.19246205-.123422.31882905-.144688.126369-.02127.275026-.02532.462998-.02532z" fill="url(#c)"/><g enable-background="new" stroke-width="16" transform="matrix(.01653564 0 0 .01653564 -.132285 -.463)"><path d="m24 28h256v256h-256z" fill="none"/><path d="m128.94873 166.70453c3.98616-7.81306 8.51637-16.61589 12.14233-25.45364l1.4337-3.48878c-4.73615-18.02252-7.57613-32.48928-5.03899-41.843643.683-2.438798 3.50766-3.918466 6.52757-3.918466l1.84023.02708h.33776c4.13438-.06342 6.08114 5.195761 6.30204 7.240504.36484 3.405405-1.21067 9.168735-1.21067 9.168735 0-2.32728.0912-6.08791-1.37777-9.332984-1.70983-3.75493-3.34306-5.998125-4.8074-6.353701-.7393.493816-1.45794 1.516365-1.70413 3.483437-.50985 2.758032-.6627 6.239328-.6627 8.033958 0 6.34052 1.24843 14.70939 3.70184 23.33657.46282-1.33573.87006-2.61908 1.19392-3.82156.50308-1.8951 3.70149-14.45749 3.70149-14.45749s-.80593 16.72242-1.9318 21.78208c-.24121 1.06923-.50735 2.12669-.78455 3.2091 4.04566 11.30398 10.56468 21.39301 18.3414 28.65418 3.06622 2.86563 6.93873 5.17617 10.60387 7.28219 8.00404-1.14369 15.37352-1.68382 21.52164-1.61577 8.15688.1076 14.14431 1.31399 16.56886 3.7022 1.18715 1.16079 1.66886 2.56278 1.8185 4.13437.0356.6114-.26223 2.04795-.34952 2.40852.0873-.43646.0873-2.58274-6.46059-4.67273-5.15693-1.64855-14.80844-1.59725-26.38961-.36449 13.3954 6.55358 26.44555 9.80971 30.58135 7.8576 1.01115-.49275 2.2375-2.17301 2.2375-2.17301s-.72897 3.31207-1.25236 4.14008c-.66804.89963-1.97847 1.87408-3.22085 2.20258-6.53149 1.74261-23.53324-2.28987-38.35486-10.75886-16.5596 2.4388-34.74566 6.94407-49.32322 11.72547-14.32531 25.10519-25.095214 36.63541-33.856715 32.24914l-3.221209-1.61969c-1.309362-.74892-1.50924-2.57205-1.206394-4.05671 1.02148-4.99766 7.288247-12.52498 19.876288-20.0416 1.35497-.81983 7.39051-4.01111 7.39051-4.01111s-4.46822 4.32464-5.515 5.17332c-10.04735 8.23348-17.462792 18.59187-17.277878 22.6076l.03634.35023c8.534902-1.21637 21.334228-18.5883 37.789078-50.78471m5.21464 2.67003c-2.74841 5.17617-5.43483 9.97538-7.91496 14.38196 13.71927-5.74801 28.48531-9.42634 42.54126-12.03936-1.88904-1.30437-3.72286-2.68571-5.44837-4.14578-7.74038-6.55322-13.64159-14.72898-17.9192-23.33229-2.71278 7.30855-5.93862 15.07494-11.25873 25.13547" fill="#fff" stroke-width="6.26906"/></g><g fill="none"><path d="m1.612742.132284c-.187972 0-.336915.0041-.463514.02532-.1266.02124-.23724305.06278-.31934505.144688-.0821.08191-.123623.192105-.144688.318829-.02106.126721-.02468.276084-.02376.464548v1.030893 1.031412c-.000794.188165.0027.337448.02376.464029.02106.126724.06258.23692.144688.318829.0821.08191.19274305.123435.31934505.144688.126602.02125.275542.02532.463514.02532h1.536783c.187972 0 .336628-.004.462998-.02532.126367-.02127.237013-.06274.318828-.144688.08181-.08195.122943-.192293.14417-.318829.02122-.126533.02532-.275685.02532-.464029v-1.031412-1.031411c0-.188345-.0041-.337497-.02532-.46403-.02122-.126536-.06236-.236878-.14417-.318829-.08181-.08195-.192461-.123422-.318828-.144688-.12637-.02127-.275026-.02532-.462998-.02532z" opacity=".4" stroke="#000" stroke-width=".26457"/><path clip-path="url(#b)" d="m325.09646 237c-2.80769 0-3.10979.28839-3.09603 3.10176v3.89824 3.89824c-.0138 2.81337.28834 3.10176 3.09603 3.10176h5.8075c2.8077 0 3.09604-.28835 3.09604-3.10176v-3.89824-3.89824c0-2.8134-.28835-3.10176-3.09604-3.10176z" opacity=".4" stroke="url(#a)" stroke-width="2" transform="matrix(.26457031 0 0 .26457031 -84.397929 -62.438596)"/></g></svg>

<?xml version="1.0" encoding="UTF-8" standalone="no"?>
<svg
   xmlns:dc="http://purl.org/dc/elements/1.1/"
   xmlns:cc="http://creativecommons.org/ns#"
   xmlns:rdf="http://www.w3.org/1999/02/22-rdf-syntax-ns#"
   xmlns:svg="http://www.w3.org/2000/svg"
   xmlns="http://www.w3.org/2000/svg"
   xmlns:xlink="http://www.w3.org/1999/xlink"
   xmlns:sodipodi="http://sodipodi.sourceforge.net/DTD/sodipodi-0.dtd"
   xmlns:inkscape="http://www.inkscape.org/namespaces/inkscape"
   width="16"
   height="16"
   version="1.1"
   viewBox="0 0 4.233125 4.233125"
   id="svg39"
   sodipodi:docname="application-pdf.svg"
   inkscape:version="0.92.4 (5da689c313, 2019-01-14)">
  <metadata
     id="metadata43">
    <rdf:RDF>
      <cc:Work
         rdf:about="">
        <dc:format>image/svg+xml</dc:format>
        <dc:type
           rdf:resource="http://purl.org/dc/dcmitype/StillImage" />
        <dc:title></dc:title>
      </cc:Work>
    </rdf:RDF>
  </metadata>
  <sodipodi:namedview
     pagecolor="#ffffff"
     bordercolor="#666666"
     borderopacity="1"
     objecttolerance="10"
     gridtolerance="10"
     guidetolerance="10"
     inkscape:pageopacity="0"
     inkscape:pageshadow="2"
     inkscape:window-width="793"
     inkscape:window-height="480"
     id="namedview41"
     showgrid="false"
     inkscape:zoom="0.921875"
     inkscape:cx="128"
     inkscape:cy="128"
     inkscape:window-x="0"
     inkscape:window-y="27"
     inkscape:window-maximized="0"
     inkscape:current-layer="svg39" />
  <defs
     id="defs17">
    <linearGradient
       id="linearGradient4226"
       x1="529.65503"
       x2="-35.310001"
       y1="401.58401"
       y2="119.093"
       gradientTransform="matrix(0,-0.11988932,-0.11988589,0,67.016455,292.5483)"
       gradientUnits="userSpaceOnUse">
      <stop
         style="stop-color:#da1636"
         offset="0"
         id="stop2" />
      <stop
         style="stop-color:#f22c42"
         offset="1"
         id="stop4" />
    </linearGradient>
    <linearGradient
       id="linearGradient4358"
       x1="88"
       x2="488"
       y1="88"
       y2="488"
       gradientUnits="userSpaceOnUse">
      <stop
         style="stop-color:#000000;stop-opacity:.58823532"
         offset="0"
         id="stop7" />
      <stop
         style="stop-color:#000000;stop-opacity:0"
         offset=".88"
         id="stop9" />
      <stop
         style="stop-color:#000000"
         offset="1"
         id="stop11" />
    </linearGradient>
    <filter
       id="filter4346"
       width="1.026"
       height="1.022"
       x="-0.0099999998"
       y="-0.0099999998"
       style="color-interpolation-filters:sRGB">
      <feGaussianBlur
         stdDeviation="2.12"
         id="feGaussianBlur14" />
    </filter>
    <linearGradient
       inkscape:collect="always"
       xlink:href="#linearGradient927"
       id="linearGradient993"
       x1="328"
       y1="237"
       x2="328"
       y2="251"
       gradientUnits="userSpaceOnUse" />
    <linearGradient
       inkscape:collect="always"
       id="linearGradient927">
      <stop
         style="stop-color:#ffffff;stop-opacity:1;"
         offset="0"
         id="stop923" />
      <stop
         id="stop933"
         offset="0.125"
         style="stop-color:#ffffff;stop-opacity:0.09803922" />
      <stop
         id="stop931"
         offset="0.92500001"
         style="stop-color:#ffffff;stop-opacity:0.09803922" />
      <stop
         style="stop-color:#ffffff;stop-opacity:0.49803922"
         offset="1"
         id="stop925" />
    </linearGradient>
    <clipPath
       clipPathUnits="userSpaceOnUse"
       id="clipPath983">
      <path
         sodipodi:nodetypes="scccssscsss"
         inkscape:connector-curvature="0"
         id="path985"
         d="m 325.09646,237 c -2.80769,0 -3.10979,0.28839 -3.09603,3.10176 V 244 v 3.89824 c -0.0138,2.81337 0.28834,3.10176 3.09603,3.10176 h 5.8075 C 333.71166,251 334,250.71165 334,247.89824 V 244 240.10176 C 334,237.28836 333.71165,237 330.90396,237 Z"
         style="color:#000000;display:inline;overflow:visible;visibility:visible;opacity:1;fill:#46a926;fill-opacity:1;fill-rule:nonzero;stroke:none;stroke-width:2;stroke-miterlimit:4;stroke-dasharray:none;stroke-opacity:1;marker:none;enable-background:accumulate" />
    </clipPath>
    <linearGradient
       inkscape:collect="always"
       xlink:href="#linearGradient4246"
       id="linearGradient920"
       gradientUnits="userSpaceOnUse"
       gradientTransform="matrix(0,-0.00953618,-0.00953591,0,5.440709,4.473642)"
       x1="459.03448"
       y1="419.23337"
       x2="35.310345"
       y2="207.36522" />
    <linearGradient
       inkscape:collect="always"
       id="linearGradient4246">
      <stop
         style="stop-color:#da1636;stop-opacity:1"
         offset="0"
         id="stop4248" />
      <stop
         style="stop-color:#f22c42;stop-opacity:1"
         offset="1"
         id="stop4250" />
    </linearGradient>
  </defs>
  <path
     style="color:#000000;display:inline;overflow:visible;visibility:visible;fill:url(#linearGradient920);fill-opacity:1;fill-rule:nonzero;stroke:none;stroke-width:0.26457033;marker:none;enable-background:accumulate"
     d="m 3.149406,0.132284 c 0.187972,0 0.336914,0.0041 0.463514,0.02532 0.126599,0.02124 0.237243,0.06278 0.319344,0.144688 0.0821,0.08191 0.123623,0.192105 0.144688,0.318829 0.02106,0.126721 0.02468,0.276084 0.02376,0.464548 V 2.116562 3.147974 C 4.101506,3.336139 4.098012,3.485422 4.076952,3.612003 4.055892,3.738727 4.014372,3.848923 3.932264,3.930832 3.850164,4.012742 3.739522,4.054267 3.61292,4.07552 3.486318,4.09677 3.337378,4.10084 3.149406,4.10084 H 1.612623 c -0.187972,0 -0.336629,-0.004 -0.462998,-0.02532 C 1.023258,4.05425 0.91261195,4.01278 0.83079595,3.930832 c -0.08181,-0.08195 -0.122943,-0.192293 -0.144169,-0.318829 -0.02122,-0.126533 -0.02532,-0.275685 -0.02532,-0.464029 V 2.116562 1.085151 c 0,-0.188345 0.0041,-0.337497 0.02532,-0.46403 0.02122,-0.126536 0.06236,-0.236878 0.144169,-0.318829 C 0.91261595,0.220342 1.023258,0.17887 1.149625,0.157604 1.275994,0.136334 1.424651,0.132284 1.612623,0.132284 Z"
     id="path918"
     inkscape:connector-curvature="0" />
  <g
     style="display:inline;stroke-width:16;enable-background:new"
     transform="matrix(0.01653564,0,0,0.01653564,-0.13228505,-0.463)"
     id="g1044">
    <rect
       inkscape:label="48x48"
       y="28"
       x="24"
       height="256"
       width="256"
       id="rect1040"
       style="display:inline;overflow:visible;visibility:visible;fill:none;fill-opacity:1;fill-rule:nonzero;stroke:none;stroke-width:32;marker:none;enable-background:accumulate" />
    <path
       style="fill:#ffffff;stroke-width:6.26906013"
       inkscape:connector-curvature="0"
       id="path1042"
       d="m 128.94873,166.70453 c 3.98616,-7.81306 8.51637,-16.61589 12.14233,-25.45364 v 0 l 1.4337,-3.48878 c -4.73615,-18.02252 -7.57613,-32.48928 -5.03899,-41.843643 v 0 c 0.683,-2.438798 3.50766,-3.918466 6.52757,-3.918466 v 0 l 1.84023,0.02708 h 0.33776 c 4.13438,-0.06342 6.08114,5.195761 6.30204,7.240504 v 0 c 0.36484,3.405405 -1.21067,9.168735 -1.21067,9.168735 v 0 c 0,-2.32728 0.0912,-6.08791 -1.37777,-9.332984 v 0 c -1.70983,-3.75493 -3.34306,-5.998125 -4.8074,-6.353701 v 0 c -0.7393,0.493816 -1.45794,1.516365 -1.70413,3.483437 v 0 c -0.50985,2.758032 -0.6627,6.239328 -0.6627,8.033958 v 0 c 0,6.34052 1.24843,14.70939 3.70184,23.33657 v 0 c 0.46282,-1.33573 0.87006,-2.61908 1.19392,-3.82156 v 0 c 0.50308,-1.8951 3.70149,-14.45749 3.70149,-14.45749 v 0 c 0,0 -0.80593,16.72242 -1.9318,21.78208 v 0 c -0.24121,1.06923 -0.50735,2.12669 -0.78455,3.2091 v 0 c 4.04566,11.30398 10.56468,21.39301 18.3414,28.65418 v 0 c 3.06622,2.86563 6.93873,5.17617 10.60387,7.28219 v 0 c 8.00404,-1.14369 15.37352,-1.68382 21.52164,-1.61577 v 0 c 8.15688,0.1076 14.14431,1.31399 16.56886,3.7022 v 0 c 1.18715,1.16079 1.66886,2.56278 1.8185,4.13437 v 0 c 0.0356,0.6114 -0.26223,2.04795 -0.34952,2.40852 v 0 c 0.0873,-0.43646 0.0873,-2.58274 -6.46059,-4.67273 v 0 c -5.15693,-1.64855 -14.80844,-1.59725 -26.38961,-0.36449 v 0 c 13.3954,6.55358 26.44555,9.80971 30.58135,7.8576 v 0 c 1.01115,-0.49275 2.2375,-2.17301 2.2375,-2.17301 v 0 c 0,0 -0.72897,3.31207 -1.25236,4.14008 v 0 c -0.66804,0.89963 -1.97847,1.87408 -3.22085,2.20258 v 0 c -6.53149,1.74261 -23.53324,-2.28987 -38.35486,-10.75886 v 0 c -16.5596,2.4388 -34.74566,6.94407 -49.32322,11.72547 v 0 C 110.6084,211.94325 99.838496,223.47347 91.076995,219.0872 v 0 l -3.221209,-1.61969 c -1.309362,-0.74892 -1.50924,-2.57205 -1.206394,-4.05671 v 0 c 1.02148,-4.99766 7.288247,-12.52498 19.876288,-20.0416 v 0 c 1.35497,-0.81983 7.39051,-4.01111 7.39051,-4.01111 v 0 c 0,0 -4.46822,4.32464 -5.515,5.17332 v 0 c -10.04735,8.23348 -17.462792,18.59187 -17.277878,22.6076 v 0 l 0.03634,0.35023 c 8.534902,-1.21637 21.334228,-18.5883 37.789078,-50.78471 m 5.21464,2.67003 c -2.74841,5.17617 -5.43483,9.97538 -7.91496,14.38196 v 0 c 13.71927,-5.74801 28.48531,-9.42634 42.54126,-12.03936 v 0 c -1.88904,-1.30437 -3.72286,-2.68571 -5.44837,-4.14578 v 0 c -7.74038,-6.55322 -13.64159,-14.72898 -17.9192,-23.33229 v 0 c -2.71278,7.30855 -5.93862,15.07494 -11.25873,25.13547" />
  </g>
  <path
     id="path1087"
     d="m 1.612742,0.132284 c -0.187972,0 -0.336915,0.0041 -0.463514,0.02532 -0.1266,0.02124 -0.23724305,0.06278 -0.31934505,0.144688 -0.0821,0.08191 -0.123623,0.192105 -0.144688,0.318829 -0.02106,0.126721 -0.02468,0.276084 -0.02376,0.464548 v 1.030893 1.031412 c -7.94e-4,0.188165 0.0027,0.337448 0.02376,0.464029 0.02106,0.126724 0.06258,0.23692 0.144688,0.318829 0.0821,0.08191 0.19274305,0.123435 0.31934505,0.144688 0.126602,0.02125 0.275542,0.02532 0.463514,0.02532 h 1.536783 c 0.187972,0 0.336628,-0.004 0.462998,-0.02532 C 3.73889,4.05425 3.849536,4.01278 3.931351,3.930832 4.013161,3.848882 4.054294,3.738539 4.075521,3.612003 4.096741,3.48547 4.100841,3.336318 4.100841,3.147974 V 2.116562 1.085151 c 0,-0.188345 -0.0041,-0.337497 -0.02532,-0.46403 C 4.054301,0.494585 4.013161,0.384243 3.931351,0.302292 3.849541,0.220342 3.73889,0.17887 3.612523,0.157604 3.486153,0.136334 3.337497,0.132284 3.149525,0.132284 Z"
     style="color:#000000;display:inline;overflow:visible;visibility:visible;opacity:0.4;fill:none;fill-opacity:1;fill-rule:nonzero;stroke:#000000;stroke-width:0.26457033;stroke-opacity:1;marker:none;enable-background:accumulate"
     inkscape:connector-curvature="0" />
  <path
     transform="matrix(0.26457031,0,0,0.26457031,-84.397929,-62.438596)"
     style="color:#000000;display:inline;overflow:visible;visibility:visible;opacity:0.4;fill:none;fill-opacity:1;fill-rule:nonzero;stroke:url(#linearGradient993);stroke-width:2;stroke-miterlimit:4;stroke-dasharray:none;stroke-opacity:1;marker:none;enable-background:accumulate"
     d="m 325.09646,237 c -2.80769,0 -3.10979,0.28839 -3.09603,3.10176 V 244 v 3.89824 c -0.0138,2.81337 0.28834,3.10176 3.09603,3.10176 h 5.8075 C 333.71166,251 334,250.71165 334,247.89824 V 244 240.10176 C 334,237.28836 333.71165,237 330.90396,237 Z"
     id="path937"
     inkscape:connector-curvature="0"
     sodipodi:nodetypes="scccssscsss"
     clip-path="url(#clipPath983)" />
</svg>
